assets/img/icons/duotone-icons/Shopping/Price #1.svg

<?xml version="1.0" encoding="UTF-8"?>
<svg width="24px" height="24px" viewBox="0 0 24 24" version="1.1" xmlns="http://www.w3.org/2000/svg" xmlns:xlink="http://www.w3.org/1999/xlink">
    <!-- Generator: Sketch 52.2 (67145) - http://www.bohemiancoding.com/sketch -->
    <title>Stockholm-icons / Shopping / Price #1</title>
    <desc>Created with Sketch.</desc>
    <g id="Stockholm-icons-/-Shopping-/-Price-#1" stroke="none" stroke-width="1" fill="none" fill-rule="evenodd">
        <polygon id="bound" points="0 0 24 0 24 24 0 24"></polygon>
        <path d="M3.52270623,14.028695 C2.82576459,13.3275941 2.82576459,12.19529 3.52270623,11.4941891 L11.6127629,3.54050571 C11.9489429,3.20999263 12.401513,3.0247814 12.8729533,3.0247814 L19.3274172,3.0247814 C20.3201611,3.0247814 21.124939,3.82955935 21.124939,4.82230326 L21.124939,11.2583059 C21.124939,11.7406659 20.9310733,12.2027862 20.5869271,12.5407722 L12.5103155,20.4728108 C12.1731575,20.8103442 11.7156477,21 11.2385688,21 C10.7614899,21 10.3039801,20.8103442 9.9668221,20.4728108 L3.52270623,14.028695 Z M16.9307214,9.01652093 C17.9234653,9.01652093 18.7282432,8.21174298 18.7282432,7.21899907 C18.7282432,6.22625516 17.9234653,5.42147721 16.9307214,5.42147721 C15.9379775,5.42147721 15.1331995,6.22625516 15.1331995,7.21899907 C15.1331995,8.21174298 15.9379775,9.01652093 16.9307214,9.01652093 Z" id="Combined-Shape" fill="#335EEA" opacity="0.3"></path>
    </g>
</svg>

<svg width="24" height="24" viewBox="0 0 24 24" xmlns="http://www.w3.org/2000/svg"><g fill="none" fill-rule="evenodd"><path d="M0 0h24v24H0z"/><path d="M3.523 14.029a1.798 1.798 0 010-2.535l8.09-7.953c.336-.331.789-.516 1.26-.516h6.454c.993 0 1.798.805 1.798 1.797v6.436c0 .483-.194.945-.538 1.283l-8.077 7.932a1.798 1.798 0 01-2.543 0l-6.444-6.444zM16.93 9.017a1.798 1.798 0 100-3.596 1.798 1.798 0 000 3.596z" fill="#335EEA" opacity=".3"/></g></svg>
